X:1
T:Title
%%score { ( 1 3 ) | ( 2 4 ) }
L:1/8
M:4/4
K:Ab
V:1 treble nm="Grand Piano"
V:3 treble 
V:2 bass 
V:4 bass 
V:1
 z4 z2[Q:1/4=100] E2 | c3 [=EG] [FB][FB] [FA]>[DF] | [CE]6 E2 | A3 A [=DA][DF] [DG]>[DA] | %4
[M:3/4] B6 |[M:1/4] E2 |[M:4/4] c3 [=EG] [FB][FB] [A,FA]>[A,DF] | [A,CE]6 [Ec]2 | %8
 [Ge]3 [Fd] cB F>G |[M:3/4] [CA]6 |[M:1/4] E2 |[M:4/4] B6 z2 | [Ec]2 [CA]4 E2 | B6 z2 | %14
[M:3/4] [CA]>[DB] [Ec]4 |[M:1/4] c2 |[M:4/4] c6 z2 | [FB]2 [DFA]4 [A,DF]2 | %18
 [A,CE]3 [A,EA] [=DA][DG] B>c[Q:1/4=99][Q:1/4=97][Q:1/4=96][Q:1/4=94][Q:1/4=93][Q:1/4=91][Q:1/4=90][Q:1/4=88][Q:1/4=87][Q:1/4=85][Q:1/4=84][Q:1/4=82][Q:1/4=81][Q:1/4=79][Q:1/4=78][Q:1/4=76] | %19
[M:7/8] A-A-A- A- A3 |] %20
V:2
 z4 z2 [A,C]2 | [A,E]3 [C,B,] [D,A,][D,A,] [D,A,]>[D,A,] | [A,,A,]6 [A,C]2 | %3
 [F,CF]3 [F,CE] [B,,B,][B,,B,] [B,,B,]>[B,,F,] |[M:3/4] [E,G,D]6 |[M:1/4] [E,G,]2 | %6
[M:4/4] [A,E]3 [C,B,] [D,A,][D,A,] D,>D, | A,,6 A,2 | [E,B,]3 [E,G,] [E,G,E][E,G,D] [E,G,D]>[E,D] | %9
[M:3/4] [A,,E,]6 |[M:1/4] C2 |[M:4/4] D6 z2 | [A,,A,]2 [A,,E,]4 C2 | D6 z2 | %14
[M:3/4] [A,,A,]>[A,,A,] [A,,A,]4 |[M:1/4] E2 |[M:4/4] =E6 z2 | .F,2 z2 z4 | %18
 E,3 C, [B,,F,][B,,B,] [E,G,D]>[E,E] |[M:7/8] E,2 z z z z2 |] %20
V:3
 x8 | x8 | x8 | x8 |[M:3/4] x6 |[M:1/4] x2 |[M:4/4] x8 | x8 | x8 |[M:3/4] x6 |[M:1/4] x2 | %11
[M:4/4] z2 G,2 G,GFE | x8 | z2 G,2 G,GFE |[M:3/4] x6 |[M:1/4] x2 |[M:4/4] z2 G,2 G,[C=EG][Ec][FB] | %17
 x8 | x8 |[M:7/8] C2 D2 C3 |] %20
V:4
 x8 | x8 | x8 | x8 |[M:3/4] x6 |[M:1/4] x2 |[M:4/4] x8 | x8 | x8 |[M:3/4] x6 |[M:1/4] x2 | %11
[M:4/4] z2 E,2 E,[E,B,D][E,A,D][E,G,D] | x8 | z2 E,2 E,[E,B,D][E,A,D][E,G,D] |[M:3/4] x6 | %15
[M:1/4] x2 |[M:4/4] z2 C,2 C,C,[C,G,][C,G,] | D,-[D,A,] D,4 D,2 | x8 | %19
[M:7/8] A,,2- [A,,-F,]2 [A,,E,]3 |] %20

